gama.ui.shared/icons_svg/light/views/tabs/view.test.svg

<?xml version="1.0" encoding="UTF-8" standalone="no"?>
<!DOCTYPE svg PUBLIC "-//W3C//DTD SVG 1.1//EN" "http://www.w3.org/Graphics/SVG/1.1/DTD/svg11.dtd">
<svg xmlns="http://www.w3.org/2000/svg" xmlns:dc="http://purl.org/dc/elements/1.1/" version="1.1" xmlns:xl="http://www.w3.org/1999/xlink" viewBox="-458.6491 -2973.7685 24.75 24.75" width="24.75" height="24.75">
  <defs/>
  <g id="SOURCES" fill="none" stroke="none" stroke-dasharray="none" fill-opacity="1" stroke-opacity="1">
    <title>SOURCES</title>
    <g id="SOURCES_Light">
      <title>Light</title>
      <g id="Group_12720">
        <g id="Group_9836">
          <title>design-validation</title>
          <g id="Graphic_9837">
            <path d="M -448.6541 -2955.5835 L -450.1241 -2957.0535 L -451.5941 -2955.5835 C -451.1881 -2955.2755 -450.6771 -2955.0935 -450.1241 -2955.0935 C -449.5711 -2955.0935 -449.0671 -2955.2755 -448.6541 -2955.5835 Z M -448.1641 -2956.0735 C -447.8561 -2956.4795 -447.6741 -2956.9905 -447.6741 -2957.5435 C -447.6741 -2958.0965 -447.8561 -2958.6005 -448.1641 -2959.0135 L -449.6341 -2957.5435 L -448.1641 -2956.0735 Z M -452.0841 -2959.0135 C -452.3921 -2958.6075 -452.5741 -2958.0965 -452.5741 -2957.5435 C -452.5741 -2956.9905 -452.3921 -2956.4865 -452.0841 -2956.0735 L -450.6141 -2957.5435 L -452.0841 -2959.0135 Z M -451.5941 -2959.5035 L -450.1241 -2958.0335 L -448.6541 -2959.5035 C -449.0601 -2959.8115 -449.5711 -2959.9935 -450.1241 -2959.9935 C -450.6771 -2959.9935 -451.1811 -2959.8115 -451.5941 -2959.5035 Z M -450.1241 -2962.0935 C -451.8671 -2962.0935 -453.2741 -2963.5005 -453.2741 -2965.2435 C -453.2741 -2966.9865 -451.8671 -2968.3935 -450.1241 -2968.3935 C -448.3811 -2968.3935 -446.9741 -2966.9865 -446.9741 -2965.2435 C -446.9741 -2963.5005 -448.3811 -2962.0935 -450.1241 -2962.0935 Z M -450.1241 -2962.7935 C -448.7731 -2962.7935 -447.6741 -2963.8925 -447.6741 -2965.2435 C -447.6741 -2966.5945 -448.7731 -2967.6935 -450.1241 -2967.6935 C -451.4751 -2967.6935 -452.5741 -2966.5945 -452.5741 -2965.2435 C -452.5741 -2963.8925 -451.4751 -2962.7935 -450.1241 -2962.7935 Z M -449.3471 -2966.1605 C -449.2281 -2966.3145 -449.0041 -2966.3355 -448.8571 -2966.2165 C -448.7031 -2966.0975 -448.6821 -2965.8735 -448.8011 -2965.7265 L -450.2011 -2963.9765 C -450.3341 -2963.8155 -450.5721 -2963.8015 -450.7191 -2963.9485 L -451.4191 -2964.6485 C -451.5591 -2964.7885 -451.5591 -2965.0055 -451.4191 -2965.1455 C -451.2791 -2965.2855 -451.0621 -2965.2855 -450.9221 -2965.1455 L -450.5021 -2964.7255 L -449.3471 -2966.1675 Z M -445.2241 -2965.5935 C -445.4201 -2965.5935 -445.5741 -2965.7475 -445.5741 -2965.9435 C -445.5741 -2966.1395 -445.4201 -2966.2935 -445.2241 -2966.2935 L -439.6241 -2966.2935 C -439.4281 -2966.2935 -439.2741 -2966.1395 -439.2741 -2965.9435 C -439.2741 -2965.7475 -439.4281 -2965.5935 -439.6241 -2965.5935 Z M -445.2241 -2964.1935 C -445.4201 -2964.1935 -445.5741 -2964.3475 -445.5741 -2964.5435 C -445.5741 -2964.7395 -445.4201 -2964.8935 -445.2241 -2964.8935 L -441.0241 -2964.8935 C -440.8281 -2964.8935 -440.6741 -2964.7395 -440.6741 -2964.5435 C -440.6741 -2964.3475 -440.8281 -2964.1935 -441.0241 -2964.1935 Z M -450.1241 -2954.3935 C -451.8671 -2954.3935 -453.2741 -2955.8005 -453.2741 -2957.5435 C -453.2741 -2959.2865 -451.8671 -2960.6935 -450.1241 -2960.6935 C -448.3811 -2960.6935 -446.9741 -2959.2865 -446.9741 -2957.5435 C -446.9741 -2955.8005 -448.3811 -2954.3935 -450.1241 -2954.3935 Z M -445.2241 -2957.8935 C -445.4201 -2957.8935 -445.5741 -2958.0475 -445.5741 -2958.2435 C -445.5741 -2958.4395 -445.4201 -2958.5935 -445.2241 -2958.5935 L -439.6241 -2958.5935 C -439.4281 -2958.5935 -439.2741 -2958.4395 -439.2741 -2958.2435 C -439.2741 -2958.0475 -439.4281 -2957.8935 -439.6241 -2957.8935 Z M -445.2241 -2956.4935 C -445.4201 -2956.4935 -445.5741 -2956.6475 -445.5741 -2956.8435 C -445.5741 -2957.0395 -445.4201 -2957.1935 -445.2241 -2957.1935 L -441.0241 -2957.1935 C -440.8281 -2957.1935 -440.6741 -2957.0395 -440.6741 -2956.8435 C -440.6741 -2956.6475 -440.8281 -2956.4935 -441.0241 -2956.4935 Z" fill="#5c76a2"/>
          </g>
        </g>
        <g id="Graphic_12717"/>
      </g>
    </g>
  </g>
</svg>

<svg height="24.75" viewBox="-458.649 -2973.769 24.75 24.75" width="24.75" xmlns="http://www.w3.org/2000/svg"><path d="m-448.6541-2955.5835-1.47-1.47-1.47 1.47c.406.308.917.49 1.47.49s1.057-.182 1.47-.49zm.49-.49c.308-.406.49-.917.49-1.47s-.182-1.057-.49-1.47l-1.47 1.47zm-3.92-2.94c-.308.406-.49.917-.49 1.47s.182 1.057.49 1.47l1.47-1.47zm.49-.49 1.47 1.47 1.47-1.47c-.406-.308-.917-.49-1.47-.49s-1.057.182-1.47.49zm1.47-2.59c-1.743 0-3.15-1.407-3.15-3.15s1.407-3.15 3.15-3.15 3.15 1.407 3.15 3.15-1.407 3.15-3.15 3.15zm0-.7c1.351 0 2.45-1.099 2.45-2.45s-1.099-2.45-2.45-2.45-2.45 1.099-2.45 2.45 1.099 2.45 2.45 2.45zm.777-3.367c.119-.154.343-.175.49-.056.154.119.175.343.056.49l-1.4 1.75c-.133.161-.371.175-.518.028l-.7-.7c-.14-.14-.14-.357 0-.497s.357-.14.497 0l.42.42 1.155-1.442zm4.123.567c-.196 0-.35-.154-.35-.35s.154-.35.35-.35h5.6c.196 0 .35.154.35.35s-.154.35-.35.35zm0 1.4c-.196 0-.35-.154-.35-.35s.154-.35.35-.35h4.2c.196 0 .35.154.35.35s-.154.35-.35.35zm-4.9 9.8c-1.743 0-3.15-1.407-3.15-3.15s1.407-3.15 3.15-3.15 3.15 1.407 3.15 3.15-1.407 3.15-3.15 3.15zm4.9-3.5c-.196 0-.35-.154-.35-.35s.154-.35.35-.35h5.6c.196 0 .35.154.35.35s-.154.35-.35.35zm0 1.4c-.196 0-.35-.154-.35-.35s.154-.35.35-.35h4.2c.196 0 .35.154.35.35s-.154.35-.35.35z" fill="#5c76a2"/></svg>
